svg/u1f6eb.svg

<svg viewBox="0 0 128 128" xmlns="http://www.w3.org/2000/svg">
  <path d="M57.9,96.09c-2.2,0-37.28,9.47-37.87,9.67c-0.77,0.27-1.03,1.26,0.24,1.61 c1.27,0.35,59.54,16.41,60.12,16.41s31.84-14.53,32.41-14.76c0.58-0.23-0.12-1.61-1.15-1.96C110.61,106.7,60.78,96.09,57.9,96.09z" fill="#5E6268"/>
  <polygon points="58.12,117.76 95.04,103.38 100.76,104.65 63.89,119.2 " fill="#C8C8C8"/>
  <polygon points="96.49,105.49 112.8,109.01 109.23,110.66 91.74,106.69 " fill="#C8C8C8"/>
  <polygon points="89.75,108.07 106.23,112.04 102.44,113.79 85.48,109.76 " fill="#C8C8C8"/>
  <polygon points="80.49,111.44 97.87,115.89 93.78,117.76 76.52,113.18 " fill="#C8C8C8"/>
  <polygon points="67.08,117.03 85,121.78 89.99,119.5 72.01,115.17 " fill="#C8C8C8"/>
  <path d="M56.05,101.89c-2.81-0.65-4.73-1.1-4.73-1.1l-7.1,1.56l5.63,1.41 C51.89,103.14,54.14,102.46,56.05,101.89z" fill="#C8C8C8"/>
  <g>
    <path d="M67.47,104.52c-1.97-0.45-4.02-0.92-5.97-1.37l-5.88,2.06l5.97,1.49L67.47,104.52z" fill="#C8C8C8"/>
    <path d="M72.62,105.69L66.77,108l5.12,1.28l6.25-2.41C77.55,106.78,75.42,106.31,72.62,105.69z" fill="#C8C8C8"/>
  </g>
  <path d="M23.6,47.53c-0.05,0.49,9.6,18.74,9.79,18.68c0.19-0.06,7.07-1.23,7.07-1.23l4.22-4.73 c0,0-16.22-15.76-16.73-15.76C27.42,44.48,23.66,46.88,23.6,47.53z" fill="#014EAC"/>
  <path d="M99.39,50.94c0,0,6.18-0.35,10.51-0.7c4.9-0.4,9.87-1.5,9.87-1.5s-0.06-2.22,0.12-2.62 c0.31-0.7,1.72-1.72,2.07-1.72s2.16,2.06,3.03,3.68c1.07,1.98,0.25,3.48-1.98,4.53c-4.25,2-13.49,5.03-29.61,6.87 C68.83,62.29,99.39,50.94,99.39,50.94z" fill="#006CA8"/>
  <path d="M51.13,66.59l-17.5,6.43c0,0,16.8,1.67,23.59,0c3.95-0.97,16.66-5.46,35.35-15.93 c18.41-10.32,25.04-17.72,26.24-19.2c1.47-1.8,2.08-3.74,1.09-4.86c-0.88-0.99-3.41-0.99-3.41-0.99L51.13,66.59z" fill="#B0B0B0"/>
  <path d="M29.59,68.7c0,0,1.57-1.53,3.39-2.9c4.49-3.38,7.95-4.88,7.95-4.88l10.92-7.19 c0,0,44.77-22.77,47.48-23.95c2.71-1.18,5.35-2.19,8.42-1.86c2.9,0.31,4.21,1.72,4.21,1.72l1.84,2.01c0,0,2.02-0.16,4.23,0.44 c1.43,0.38,1.88,0.95,1.88,0.95s-16.3,12.59-28.89,20.01s-33.61,19.13-42.5,20.03S30.16,72.6,30.16,72.6L29.59,68.7z" fill="#C8C8C8"/>
  <path d="M11.14,71.22c0.08,1.44,0.91,1.44,5.82,1.44c5.07,0,14.97,0.15,15.72,0.15c0.76,0,3.78-1.21,3.93-3.4 c0.11-1.59-0.3-2.34-1.36-2.34s-2.57,0.76-4.16,1.06c-1.59,0.3-14.82,1.44-16.48,1.59C12.96,69.85,11.07,69.85,11.14,71.22z" fill="#006CA8"/>
  <path d="M95.21,60.4c0,0,2.44-2.61,4.81-4.7c2.38-2.09,5.69-4.39,6.68-4.45c2.04-0.13,5.16,0.89,6.08,4.42 s-1.22,5.42-2.13,6.04c-1.28,0.87-7.39,5.17-11.33,4.3C94.24,64.91,95.21,60.4,95.21,60.4z" fill="#9A9A9A"/>
  <path d="M106.74,52.81c-1.05,0.47-1.86,2.2-0.46,4.93c1.39,2.73,3.16,3.01,4.17,2.32 c1.1-0.75,1-3.23,0.23-4.87C109.82,53.33,107.9,52.29,106.74,52.81z" fill="#5E6269"/>
  <path d="M70.01,49.95c-1.14,0.34-1.15,1.76-1.04,2.25c0.3,1.42,2.38,1.21,2.38,1.21s0.68-1.21,0.31-2.33 C71.47,50.49,70.98,49.66,70.01,49.95z" fill="#3B5361"/>
  <path d="M4.42,50.88c-1.13,0.09-1.28,5.97-1.21,7.41c0.08,1.44,0.91,2.49,3.63,2.8s44.52,1.44,49.13,1.44 s15.95-2.27,15.95-2.27s5.74-3.17,7.48-4.31c1.74-1.13,5.42-3.13,3.29-4.69c-0.82-0.6-17.28,1.52-35.41,2.95 c-19.11,1.5-28.95,2.65-38.85,2.27C8.42,56.48,5.32,50.81,4.42,50.88z" fill="#006CA8"/>
  <path d="M55.37,65.8c1.87,3.44,6.44,2.96,9.28,1.62c2.84-1.33,6.65-3.13,7.07-3.48S73.4,60,71.2,56.29 c-2.2-3.71-5.08-3.69-5.91-3.59c-0.84,0.1-5.49,3.21-7.36,4.75C55.89,59.13,53.52,62.38,55.37,65.8z" fill="#9A9A9A"/>
  <path d="M65.39,54.33c-1.54,0.47-1.34,3.96,0,6.15c1.39,2.26,3.13,3.36,4.46,2.73c1.33-0.64,1.16-3.18,0-5.62 C68.63,55.02,66.72,53.92,65.39,54.33z" fill="#5E6269"/>
  <path d="M112.04,29.66c0,0-1.87-0.07-5.06,1.9c-3.19,1.97-4.18,4.22-3.31,4.85c0.96,0.69,2.82-1.34,5.59-2.76 c2.27-1.17,4.52-2.03,4.52-2.03L112.04,29.66z" fill="#3B5361"/>
  <path d="M76.37,46.72c-0.85,0.23-1.18,1.22-1.03,2.21s0.91,1.44,1.6,1.22c0.68-0.23,1.14-0.8,1.06-1.94 C77.93,47.11,77.36,46.46,76.37,46.72z" fill="#3B5361"/>
  <path d="M82.71,43.29c-1.12,0.38-1.17,1.34-1.09,2.07c0.12,1.04,0.91,1.56,1.67,1.37s1.1-1.17,0.94-2.08 C84.08,43.74,83.55,43.01,82.71,43.29z" fill="#3B5361"/>
  <path d="M89.06,40.03c-0.82,0.24-1.24,1.02-1.13,2.16c0.09,0.98,0.77,1.91,1.59,1.56 c0.84-0.37,1.22-1.07,1.04-2.38C90.42,40.45,89.93,39.77,89.06,40.03z" fill="#3B5361"/>
  <path d="M95.19,37.1c-0.98,0.37-1.22,1.1-1.22,1.98c0,1.11,0.79,1.89,1.65,1.65c1.07-0.3,1.3-1.56,1.22-2.2 C96.71,37.62,96.07,36.77,95.19,37.1z" fill="#3B5361"/>
  <path d="M44.79,63.81c-0.73,0.25-1.15,1.02-1,2.07c0.15,1.05,0.94,1.25,1.51,1.22 c0.56-0.03,1.17-0.89,1.07-2.09C46.3,64.13,45.53,63.55,44.79,63.81z" fill="#3B5361"/>
  <path d="M96.61,32.65c-0.79,0.37-32.32,17.2-33.1,17.65c-0.78,0.45-0.88,0.95-0.6,1.43 c0.28,0.48,1.32,0.06,1.91-0.22S97.05,34.62,97.5,34.35c0.44-0.27,1.05-0.85,0.67-1.6C97.92,32.24,97.18,32.39,96.61,32.65z" fill="#E0E0DF"/>
  <path d="M99.65,31.03c-0.53,0.3-1.01,0.78-0.74,1.35c0.27,0.57,0.97,0.53,1.54,0.23 c0.57-0.29,0.97-0.76,0.76-1.33C101,30.71,100.22,30.71,99.65,31.03z" fill="#E0E0DF"/>
</svg>

<svg viewBox="0 0 128 128" xmlns="http://www.w3.org/2000/svg">
  <defs/>
  <path d="M57.9,96.09 C55.7,96.09 20.62,105.56 20.03,105.76 C19.26,106.03 19,107.02 20.27,107.37 C21.54,107.72 79.81,123.78 80.39,123.78 C80.97,123.78 112.23,109.25 112.8,109.02 C113.38,108.79 112.68,107.41 111.65,107.06 C110.61,106.7 60.78,96.09 57.9,96.09 Z" fill="#5E6268"/>
  <path d="M58.12,117.76 L95.04,103.38 L100.76,104.65 L63.89,119.2 Z" fill="#C8C8C8"/>
  <path d="M96.49,105.49 L112.8,109.01 L109.23,110.66 L91.74,106.69 Z" fill="#C8C8C8"/>
  <path d="M89.75,108.07 L106.23,112.04 L102.44,113.79 L85.48,109.76 Z" fill="#C8C8C8"/>
  <path d="M80.49,111.44 L97.87,115.89 L93.78,117.76 L76.52,113.18 Z" fill="#C8C8C8"/>
  <path d="M67.08,117.03 L85,121.78 L89.99,119.5 L72.01,115.17 Z" fill="#C8C8C8"/>
  <path d="M56.05,101.89 C53.24,101.24 51.32,100.79 51.32,100.79 L44.22,102.35 L49.85,103.76 C51.89,103.14 54.14,102.46 56.05,101.89 Z" fill="#C8C8C8"/>
  <path d="M67.47,104.52 C65.5,104.07 63.45,103.6 61.5,103.15 L55.62,105.21 L61.59,106.7 L67.47,104.52 Z" fill="#C8C8C8"/>
  <path d="M72.62,105.69 L66.77,108 L71.89,109.28 L78.14,106.87 C77.55,106.78 75.42,106.31 72.62,105.69 Z" fill="#C8C8C8"/>
  <path d="M23.6,47.53 C23.55,48.02 33.2,66.27 33.39,66.21 C33.58,66.15 40.46,64.98 40.46,64.98 L44.68,60.25 C44.68,60.25 28.46,44.49 27.95,44.49 C27.42,44.48 23.66,46.88 23.6,47.53 Z" fill="#014EAC"/>
  <path d="M99.39,50.94 C99.39,50.94 105.57,50.59 109.9,50.24 C114.8,49.84 119.77,48.74 119.77,48.74 C119.77,48.74 119.71,46.52 119.89,46.12 C120.2,45.42 121.61,44.4 121.96,44.4 C122.31,44.4 124.12,46.46 124.99,48.08 C126.06,50.06 125.24,51.56 123.01,52.61 C118.76,54.61 109.52,57.64 93.4,59.48 C68.83,62.29 99.39,50.94 99.39,50.94 Z" fill="#006CA8"/>
  <path d="M51.13,66.59 L33.63,73.02 C33.63,73.02 50.43,74.69 57.22,73.02 C61.17,72.05 73.88,67.56 92.57,57.09 C110.98,46.77 117.61,39.37 118.81,37.89 C120.28,36.09 120.89,34.15 119.9,33.03 C119.02,32.04 116.49,32.04 116.49,32.04 L51.13,66.59 Z" fill="#B0B0B0"/>
  <path d="M29.59,68.7 C29.59,68.7 31.16,67.17 32.98,65.8 C37.47,62.42 40.93,60.92 40.93,60.92 L51.85,53.73 C51.85,53.73 96.62,30.96 99.33,29.78 C102.04,28.6 104.68,27.59 107.75,27.92 C110.65,28.23 111.96,29.64 111.96,29.64 L113.8,31.65 C113.8,31.65 115.82,31.49 118.03,32.09 C119.46,32.47 119.91,33.04 119.91,33.04 C119.91,33.04 103.61,45.63 91.02,53.05 C78.43,60.47 57.41,72.18 48.52,73.08 C39.63,73.98 30.16,72.6 30.16,72.6 L29.59,68.7 Z" fill="#C8C8C8"/>
  <path d="M11.14,71.22 C11.22,72.66 12.05,72.66 16.96,72.66 C22.03,72.66 31.93,72.81 32.68,72.81 C33.44,72.81 36.46,71.6 36.61,69.41 C36.72,67.82 36.31,67.07 35.25,67.07 C34.19,67.07 32.68,67.83 31.09,68.13 C29.5,68.43 16.27,69.57 14.61,69.72 C12.96,69.85 11.07,69.85 11.14,71.22 Z" fill="#006CA8"/>
  <path d="M95.21,60.4 C95.21,60.4 97.65,57.79 100.02,55.7 C102.4,53.61 105.71,51.31 106.7,51.25 C108.74,51.12 111.86,52.14 112.78,55.67 C113.7,59.2 111.56,61.09 110.65,61.71 C109.37,62.58 103.26,66.88 99.32,66.01 C94.24,64.91 95.21,60.4 95.21,60.4 Z" fill="#9A9A9A"/>
  <path d="M106.74,52.81 C105.69,53.28 104.88,55.01 106.28,57.74 C107.67,60.47 109.44,60.75 110.45,60.06 C111.55,59.31 111.45,56.83 110.68,55.19 C109.82,53.33 107.9,52.29 106.74,52.81 Z" fill="#5E6269"/>
  <path d="M70.01,49.95 C68.87,50.29 68.86,51.71 68.97,52.2 C69.27,53.62 71.35,53.41 71.35,53.41 C71.35,53.41 72.03,52.2 71.66,51.08 C71.47,50.49 70.98,49.66 70.01,49.95 Z" fill="#3B5361"/>
  <path d="M4.42,50.88 C3.29,50.97 3.14,56.85 3.21,58.29 C3.29,59.73 4.12,60.78 6.84,61.09 C9.56,61.4 51.36,62.53 55.97,62.53 C60.58,62.53 71.92,60.26 71.92,60.26 C71.92,60.26 77.66,57.09 79.4,55.95 C81.14,54.82 84.82,52.82 82.69,51.26 C81.87,50.66 65.41,52.78 47.28,54.21 C28.17,55.71 18.33,56.86 8.43,56.48 C8.42,56.48 5.32,50.81 4.42,50.88 Z" fill="#006CA8"/>
  <path d="M55.37,65.8 C57.24,69.24 61.81,68.76 64.65,67.42 C67.49,66.09 71.3,64.29 71.72,63.94 C72.14,63.59 73.4,60 71.2,56.29 C69,52.58 66.12,52.6 65.29,52.7 C64.45,52.8 59.8,55.91 57.93,57.45 C55.89,59.13 53.52,62.38 55.37,65.8 Z" fill="#9A9A9A"/>
  <path d="M65.39,54.33 C63.85,54.8 64.05,58.29 65.39,60.48 C66.78,62.74 68.52,63.84 69.85,63.21 C71.18,62.57 71.01,60.03 69.85,57.59 C68.63,55.02 66.72,53.92 65.39,54.33 Z" fill="#5E6269"/>
  <path d="M112.04,29.66 C112.04,29.66 110.17,29.59 106.98,31.56 C103.79,33.53 102.8,35.78 103.67,36.41 C104.63,37.1 106.49,35.07 109.26,33.65 C111.53,32.48 113.78,31.62 113.78,31.62 L112.04,29.66 Z" fill="#3B5361"/>
  <path d="M76.37,46.72 C75.52,46.95 75.19,47.94 75.34,48.93 C75.49,49.92 76.25,50.37 76.94,50.15 C77.62,49.92 78.08,49.35 78,48.21 C77.93,47.11 77.36,46.46 76.37,46.72 Z" fill="#3B5361"/>
  <path d="M82.71,43.29 C81.59,43.67 81.54,44.63 81.62,45.36 C81.74,46.4 82.53,46.92 83.29,46.73 C84.05,46.54 84.39,45.56 84.23,44.65 C84.08,43.74 83.55,43.01 82.71,43.29 Z" fill="#3B5361"/>
  <path d="M89.06,40.03 C88.24,40.27 87.82,41.05 87.93,42.19 C88.02,43.17 88.7,44.1 89.52,43.75 C90.36,43.38 90.74,42.68 90.56,41.37 C90.42,40.45 89.93,39.77 89.06,40.03 Z" fill="#3B5361"/>
  <path d="M95.19,37.1 C94.21,37.47 93.97,38.2 93.97,39.08 C93.97,40.19 94.76,40.97 95.62,40.73 C96.69,40.43 96.92,39.17 96.84,38.53 C96.71,37.62 96.07,36.77 95.19,37.1 Z" fill="#3B5361"/>
  <path d="M44.79,63.81 C44.06,64.06 43.64,64.83 43.79,65.88 C43.94,66.93 44.73,67.13 45.3,67.1 C45.86,67.07 46.47,66.21 46.37,65.01 C46.3,64.13 45.53,63.55 44.79,63.81 Z" fill="#3B5361"/>
  <path d="M96.61,32.65 C95.82,33.02 64.29,49.85 63.51,50.3 C62.73,50.75 62.63,51.25 62.91,51.73 C63.19,52.21 64.23,51.79 64.82,51.51 C65.41,51.23 97.05,34.62 97.5,34.35 C97.94,34.08 98.55,33.5 98.17,32.75 C97.92,32.24 97.18,32.39 96.61,32.65 Z" fill="#E0E0DF"/>
  <path d="M99.65,31.03 C99.12,31.33 98.64,31.81 98.91,32.38 C99.18,32.95 99.88,32.91 100.45,32.61 C101.02,32.32 101.42,31.85 101.21,31.28 C101,30.71 100.22,30.71 99.65,31.03 Z" fill="#E0E0DF"/>
</svg>
